ummisco.gama.ui.shared/svg/views/tabs/view.errors.svg

<svg xmlns="http://www.w3.org/2000/svg" xmlns:xl="http://www.w3.org/1999/xlink" width="16" height="16" version="1.1" viewBox="-832 -3329.872 16 16"><g id="ICONES" fill="none" fill-opacity="1" stroke="none" stroke-dasharray="none" stroke-opacity="1"><title>ICONES</title><g id="ICONES_Calque_1"><title>Calque 1</title><g id="Graphic_2331"><title>views/tabs/view.errors</title><path fill="#9f4c4c" d="M -824 -3329.8716 C -828.416 -3329.8716 -832 -3326.2876 -832 -3321.8716 C -832 -3317.4556 -828.416 -3313.8716 -824 -3313.8716 C -819.584 -3313.8716 -816 -3317.4556 -816 -3321.8716 C -816 -3326.2876 -819.584 -3329.8716 -824 -3329.8716 Z M -823.2 -3317.8716 L -824.8 -3317.8716 L -824.8 -3319.4716 L -823.2 -3319.4716 L -823.2 -3317.8716 Z M -823.2 -3321.0716 L -824.8 -3321.0716 L -824.8 -3325.8716 L -823.2 -3325.8716 L -823.2 -3321.0716 Z"/></g></g></g></svg>

<svg xmlns="http://www.w3.org/2000/svg" width="16" height="16" viewBox="-832 -3329.872 16 16"><g fill="none"><path fill="#9f4c4c" d="M-824-3329.872c-4.416 0-8 3.584-8 8s3.584 8 8 8 8-3.584 8-8-3.584-8-8-8Zm.8 12h-1.6v-1.6h1.6v1.6Zm0-3.2h-1.6v-4.8h1.6v4.8Z"/></g></svg>
